X: 3
T: Jerry's Beaver Hat
R: jig
M: 6/8
L: 1/8
K: Dmaj
|:DFA d2e|fdB BAF|A3 dAF|E3 GFE|
DFA d2e|fdB BAF|A3 dAF|D3 D2 :||
|:df/g/a afd|g3 f3|df/g/a afd|cee e2A|
df/g/a afd|g3 f3|B/c/dB AFA|D3 D2 :||


Tune 319	Setting 319

